icons/lines/call-slash.svg

<svg xmlns="http://www.w3.org/2000/svg" width="24" height="24" viewBox="0 0 24 24" fill="none" stroke="currentColor" stroke-width="2" stroke-linecap="round" stroke-linejoin="round" >
  <path d="M10.3203 18.97C10.4603 19.08 10.6003 19.18 10.7503 19.29C11.8903 20.12 13.0403 20.78 14.1903 21.27C15.3403 21.76 16.4303 22 17.4503 22C18.1503 22 18.8003 21.87 19.4003 21.62C20.0103 21.37 20.5503 20.98 21.0403 20.44C21.3303 20.12 21.5503 19.78 21.7203 19.42C21.8903 19.06 21.9703 18.69 21.9703 18.33C21.9703 18.05 21.9103 17.8 21.8103 17.55C21.7003 17.3 21.5203 17.09 21.2603 16.91L17.9503 14.56C17.7003 14.39 17.4703 14.26 17.2503 14.17C17.0303 14.08 16.8303 14.04 16.6403 14.04C16.3903 14.04 16.1603 14.11 15.9303 14.25C15.7003 14.37 15.4603 14.56 15.2103 14.81L14.4503 15.56C14.3403 15.67 14.2103 15.73 14.0403 15.73C13.9503 15.73 13.8703 15.72 13.7903 15.69C13.7203 15.66 13.6603 15.63 13.6103 15.61C13.4203 15.51 13.2003 15.37 12.9603 15.19" stroke-miterlimit="10"/>
  <path d="M10.73 13.22C10.21 12.69 9.73 12.16 9.28 11.64C8.84 11.12 8.53 10.69 8.35 10.36C8.33 10.3 8.3 10.24 8.27 10.16C8.25 10.08 8.24 10.01 8.24 9.93C8.24 9.77 8.29 9.64 8.4 9.53L9.16 8.74C9.4 8.5 9.59 8.26 9.72 8.03C9.86 7.8 9.93 7.56 9.93 7.32C9.93 7.13 9.88 6.92 9.79 6.71C9.7 6.49 9.57 6.26 9.39 6.01L7.07 2.74C6.89 2.48 6.66 2.3 6.4 2.18C6.15 2.06 5.87 2 5.59 2C4.85 2 4.15 2.31 3.51 2.94C2.98 3.44 2.6 4 2.36 4.61C2.12 5.21 2 5.86 2 6.54C2 7.58 2.24 8.67 2.72 9.81C3.2 10.94 3.86 12.08 4.68 13.22C5.51 14.36 6.44 15.45 7.47 16.49" stroke-miterlimit="10"/>
  <path d="M22 2L2 22"/>
  </svg>

<svg xmlns="http://www.w3.org/2000/svg" width="24" height="24" viewBox="0 0 24 24" fill="none" stroke="currentColor" stroke-width="2" stroke-linecap="round" stroke-linejoin="round">
  <path d="M10.32 18.97a16 16 0 0 0 .43.32 17.6 17.6 0 0 0 3.44 1.98c1.15.49 2.24.73 3.26.73a5 5 0 0 0 1.95-.38 4.5 4.5 0 0 0 1.64-1.18 4.1 4.1 0 0 0 .68-1.02 2.55 2.55 0 0 0 .25-1.09 2 2 0 0 0-.16-.78 1.5 1.5 0 0 0-.55-.64l-3.31-2.35a4 4 0 0 0-.7-.39 1.6 1.6 0 0 0-.61-.13 1.33 1.33 0 0 0-.71.21 3 3 0 0 0-.72.56l-.76.75a.55.55 0 0 1-.41.17.7.7 0 0 1-.25-.04l-.18-.08a5 5 0 0 1-.65-.42" />
  <path d="M10.73 13.22a34 34 0 0 1-1.45-1.58c-.44-.52-.75-.95-.93-1.28l-.08-.2a1 1 0 0 1-.03-.23.54.54 0 0 1 .16-.4l.76-.79a3.4 3.4 0 0 0 .56-.71 1.36 1.36 0 0 0 .21-.71 1.6 1.6 0 0 0-.14-.61 3.4 3.4 0 0 0-.4-.7L7.07 2.74a1.63 1.63 0 0 0-.67-.56A1.9 1.9 0 0 0 5.59 2c-.74 0-1.44.31-2.08.94a4.6 4.6 0 0 0-1.15 1.67A5.2 5.2 0 0 0 2 6.54q0 1.56.72 3.27c.48 1.13 1.14 2.27 1.96 3.41a28.4 28.4 0 0 0 2.79 3.27" />
  <path d="M22 2 2 22" />
</svg>
